X:1
T:James Gibb editions
T:Almighty and everlasting God - Gibbons
T:#
%%score [ 1 2 3 4 ]
L:1/8
Q:1/4=96
M:4/4
K:Ab
V:1 treble nm="Soprano" snm="S"
V:2 treble nm="Alto" snm="A"
V:3 treble-8 nm="Tenor" snm="T"
V:4 bass nm="Bass" snm="B"
V:1
"^Orlando Gibbons\n(1583-1625)""^Almighty and everlasting God" z8 | z8 | z8 |[M:4/4] d2 d3 d c2 | %4
w: |||Al- migh- ty and|
 B2 E2 F2 G2 | A6 d2- | dcBA B3 c/d/ | c2 B2 A2 F2 | G4 e3 d | cB c2 A2 d2- | d (cB)A B4- | %11
w: e- ver- last- ing|God, mer\-|* ci- ful- ly look up- on|our in- fir- mi-|ties, mer- ci-|ful- ly look up- on|* our * in- fir\-|
 B2 B2 B4 | z2 BB c2 B2 | d2 c2 BB A2- | A2 G2 A2 z2 | z2 AA c2 B2 | d2 c4 ee | A2 A2 B4 | %18
w: * mi- ties,|and in all our|dan- gers and ne- ces\-|* si- ties,|and in all our|dan- gers and ne-|ces- si- ties|
 z2 c4 cc | d2 c4 z2 | z2 e4 ee | f2 e4 e2 | e2 ee c2 B2 | z2 B4 BB | c2 B2 z2 B2 | e4 d2 c2 | %26
w: stretch forth Thy|right hand,|stretch forth Thy|right hand to|help and de- fend us,|stretch forth Thy|right hand to|help and de-|
 B2 E2 B2 e2- | ed c2 B2 c2- | c2 c2 (f3 e) | dc d2 BB (e2- | e2 =d2) e4 | z2 c2 e2 B2 | d4 c4 | %33
w: fend us, to help|* and de- fend us,|* to help *|and de- fend us, de- fend|* * us;|through Je- sus|Christ our|
 B4 z2 c2 | e2 B2 d2 c2 | B4 (c2 e2- | eA d2) c4 |] %37
w: Lord, through|Je- sus Christ our|Lord. A\- *|* * * men.|
V:2
 z8 | A2 A3 A G2 | F3 F F2 E2 |[M:4/4] F2 F2 E3 F | G2 A2 B4 | z2 A3 GFE | F4 D2 E2- | E2 F4 =D2 | %8
w: |Al- migh- ty and|e- ver- last- ing|God, and e- ver-|~last ing God,|mer- ci- ful- ly|look up- on|* our in-|
 E3 E E4 | A3 G FE F2- | F2 D2 _G3 (F | E)=D E4 D2 | E4 z2 EE | F2 E2 _G2 F2 | E4 A,2 E2- | %15
w: fir- mi- ties,|mer- ci- ful- ly look|* up- on our|* in- fir- mi-|ties, and in|all our dan- gers|and ne- ces\-|
 E2 =D2 E2 EE | F2 E2 A3 G | F2 E2 D2 E2 | C4 z2 F2- | F2 FF A2 GG | F2 E2 z2 A2- | A2 AA B2 A2- | %22
w: * si- ties, and in|all our dan- gers|and ne- ces- si-|ties stretch|* forth Thy right hand, Thy|right hand, stretch|* forth Thy right hand|
 A2 G2 E2 GG | F4 G2 G2- | G2 GG A2 G2- | G2 A2 F2 E2- | ED C2 B,2 A,2 | E3 F G2 EE | %28
w: * to help and de-|fend us, stretch|* forth Thy right hand|* to help and|* de- fend us, stretch|forth Thy right hand to|
 A2 AG FE F2- | F2 FF G4 | E2 F A2 G/F/ G2 | A2 E4 G2 | F2 A2 E4 | G2 B2 F2 A2- | A2 G2 F2 E2- | %35
w: help and de- fend us, stretch|* forth Thy right|hand to help and de- fend|us; through Christ|our Lord, through|Christ our Lord, through|* Christ our Lord.|
 ED (B,2 F2 E2 | F4) E4 |] %37
w: * * A\- * *|* men.|
V:3
 z8 | z8 | d2 d3 d c2 |[M:4/4][K:treble-8] B2 F2 G2 AA | B2 c2 d2 e2 | f4 z4 | d3 c BA B2 | %7
w: ||Al- migh- ty and|e- ver- last- ing, and|e- ver- last- ing|God,|mer- ci- ful- ly look|
 cc d3 cBA | B2 e3 dcB | c2 A2 d2 dc | BA B4 B2- | B2 G2 F3 F | G8 | z4 z2 AA | c2 B2 d2 c2 | %15
w: up- on our in- fir- mi-|ties, mer- ci- ful- ly|look up- on our in-|fir- mi- ties, our|* in- fir- mi-|ties,|and in|all our dan- gers|
 BA A4 G2 | A2 c2 f2 e2 | d2 c2 B3 B | A4 z4 | z2 c4 cc | d2 c2 z2 c2- | c2 cc e2 c2- | %22
w: and ne- ces- si-|ties, our dan- gers|and ne- ces- si-|ties|stretch forth Thy|right hand, stretch|* forth Thy right hand|
 c2 B2 c2 e2- | ee =d2 e2 e2- | e2 ee =d2 ee | B2 cc F2 A2 | G2 e3 d c2 | BB e3 dcB | A4 (d3 c | %29
w: * to help and|* de- fend us, stretch|* forth Thy right hand to|help and de- fend us,|to help and de-|fend, to help and de- fend|us, to *|
 BA) B4 G2 | (c2 BA) B4 | A4 z4 | z4 z2 c2 | e2 B2 d2 c2- | c2 B3 A A2- | A2 G2 A4- | A2 F2 A4 |] %37
w: * * help and|de\- * * fend|us;|through|Christ our Lord, through|* Christ our Lord.|* A- men,|* A- men.|
V:4
 A,2 A,3 A, G,2 | F,2 C,2 D,2 E,2 | F,2 (D,E,) (F,G,) A,2 |[M:4/4] D,3 D, E,4- | E,2 z2 z4 | %5
w: Al- migh- ty and|e- ver- last- ing|God, and * e\- * ver-|last- ing God,||
 z4 D3 C | B,A, B,4 G,2 | A,2 D,E, F,3 F, | E,6 A,2- | A,G,F,E, F,4 | D,2 _G,3 (F,E,)D, | %11
w: mer- ci-|ful- ly look up-|on our in- fir- mi-|ties, mer\-|* ci- ful- ly look|up- on our * in-|
 E,4 B,,4 | E,8 | z8 | z2 E,E, F,2 E,2 | _G,2 F,2 E,3 E, | D,2 A,2 F,2 C,2 | D,2 A,4 G,2 | %18
w: fir- mi-|ties,||and in all our|dan- gers and ne-|ces- si- ties, and|ne- ces- si-|
 A,4 z2 F,2- | F,2 F,F, F,2 E,E, | D,2 A,2 z2 A,2- | A,2 A,A, G,2 A,2- | A,2 E,2 A,2 G,G, | %23
w: ties stretch|* forth Thy right hand, Thy|right hand, stretch|* forth Thy right hand|* to help and de-|
 B,4 E,2 E,2- | E,2 E,E, F,2 E,2- | E,2 C,2 D,2 A,,A,, | (E,3 F, G,2 A,2) | E,4 E,2 A,2- | %28
w: fend us, stretch|* forth Thy right hand|* to help and de-|fend * * *|us, to help|
 A, (G,F,)E, D,2 D,2- | D,2 B,,2 E,4 | C,2 F,2 E,4 | A,6 G,2 | B,2 F,2 A,4 | (E,F,G,A,) B,2 A,2 | %34
w: * and * de- fend us,|* to help|and de- fend|us; through|Christ our Lord,|through * * * Christ our|
 E,4 F,2 (C,2 | E,4) A,,2 (C,2 | D,4) A,,4 |] %37
w: Lord, Christ our|* Lord. A\-|* men.|

